src/topics/icons/braze.svg

<svg height="256" preserveAspectRatio="xMidYMid" viewBox="0 0 256 256" width="256" xmlns="http://www.w3.org/2000/svg"><path d="m115.665455 146.618182c2.094545-20.014546 14.661818-36.305455 29.323636-36.305455s22.574545 16.290909 20.48 36.305455c-2.094546 20.014545-14.196364 36.538182-27.927273 36.538182s-24.901818-12.567273-21.876363-36.538182m12.334545 90.763636c-32.5796834.046455-63.4768683-14.463273-84.2472727-39.563636 18.1527272 5.818182 38.4.698182 54.2254545-14.894546 1.6712466-1.676493 3.2263612-3.464875 4.6545452-5.352727 7.214546 15.592727 21.178182 23.505455 35.141818 23.505455 23.738182 0 43.752728-24.436364 46.08-54.690909 2.327273-30.254546-14.661818-54.225455-37.236363-54.225455-8.191364-.113559-16.251671 2.0627238-23.272727 6.2836364l6.981818-40.7272728c.695982-3.2600182-.069317-6.6613451-2.094546-9.3090909-2.094545-3.2581818-3.956363-4.6545454-6.749091-4.6545454h-32.5818178c-1.9262234.1003739-3.4993278 1.5751593-3.7236364 3.4909091-.8657373 3.8355745-1.487589 7.7221477-1.8618182 11.6363636-.2327272 2.56 1.6290909 3.4909091 3.7236364 3.4909091h23.738182c-3.723637 23.2727273-11.1709093 68.4218179-13.2654547 79.8254549-2.1956388 10.794097-7.4463603 20.730078-15.1272728 28.625454-13.0327272 13.032727-37.0036363 16.058182-51.2 1.861818-4.8872727-5.12-12.5672727-17.687272-12.5672727-44.683636 0-60.4099101 48.9719081-109.3818182 109.3818182-109.3818182 60.40991 0 109.381818 48.9719081 109.381818 109.3818182 0 60.40991-48.971908 109.381818-109.381818 109.381818m0-237.381818c-70.692448 0-128 57.307552-128 128s57.307552 128 128 128 128-57.307552 128-128c0-33.9477107-13.485676-66.5050116-37.490332-90.509668s-56.561957-37.490332-90.509668-37.490332" fill="#212124"/></svg>

<?xml version="1.0" encoding="UTF-8"?>
<svg width="256px" height="256px" viewBox="0 0 256 256" version="1.1" xmlns="http://www.w3.org/2000/svg" xmlns:xlink="http://www.w3.org/1999/xlink" preserveAspectRatio="xMidYMid">
    <g>
        <path d="M115.665455,146.618182 C117.76,126.603636 130.327273,110.312727 144.989091,110.312727 C159.650909,110.312727 167.563636,126.603636 165.469091,146.618182 C163.374545,166.632727 151.272727,183.156364 137.541818,183.156364 C123.810909,183.156364 112.64,170.589091 115.665455,146.618182 M128,237.381818 C95.4203166,237.428273 64.5231317,222.918545 43.7527273,197.818182 C61.9054545,203.636364 82.1527273,198.516364 97.9781818,182.923636 C99.6494284,181.247143 101.204543,179.458761 102.632727,177.570909 C109.847273,193.163636 123.810909,201.076364 137.774545,201.076364 C161.512727,201.076364 181.527273,176.64 183.854545,146.385455 C186.181818,116.130909 169.192727,92.16 146.618182,92.16 C138.426818,92.046441 130.366511,94.2227238 123.345455,98.4436364 L130.327273,57.7163636 C131.023255,54.4563454 130.257956,51.0550185 128.232727,48.4072727 C126.138182,45.1490909 124.276364,43.7527273 121.483636,43.7527273 L88.9018182,43.7527273 C86.9755948,43.8531012 85.4024904,45.3278866 85.1781818,47.2436364 C84.3124445,51.0792109 83.6905928,54.9657841 83.3163636,58.88 C83.0836364,61.44 84.9454545,62.3709091 87.04,62.3709091 L110.778182,62.3709091 C107.054545,85.6436364 99.6072727,130.792727 97.5127273,142.196364 C95.3170885,152.990461 90.066367,162.926442 82.3854545,170.821818 C69.3527273,183.854545 45.3818182,186.88 31.1854545,172.683636 C26.2981818,167.563636 18.6181818,154.996364 18.6181818,128 C18.6181818,67.5900899 67.5900899,18.6181818 128,18.6181818 C188.40991,18.6181818 237.381818,67.5900899 237.381818,128 C237.381818,188.40991 188.40991,237.381818 128,237.381818 M128,0 C57.307552,-4.32866401e-15 8.65732801e-15,57.307552 0,128 C-8.65732801e-15,198.692448 57.307552,256 128,256 C198.692448,256 256,198.692448 256,128 C256,94.0522893 242.514324,61.4949884 218.509668,37.490332 C194.505012,13.4856756 161.947711,2.07869776e-15 128,0" fill="#212124" fill-rule="nonzero"></path>
    </g>
</svg>
